X: 1
T: Pressed For Time
M: 4/4
L: 1/8
R: reel
K: Amix
|:GAg GAf GA|e GAe GAeA| GAA/A/A d2 cA|GAA/A/A d2 cA|
GAg GAf GA|e GAe GAeA | cAA/A/A dAcA|A/A/A eA e z3:|
|:GAdA cAGA|A/A/AdA cAA/A/A|cdd/d/d edd/d/d|effe a2 z f|
eAA/A/A BAeA|A/A/Ae z d2cA|GAA/A/A dAcA|1 A/A/AeA e2 z A:|2  A/A/Ae2 z Ace||
|:gg/g/gf geef|gg/g/ga geeg|ff/f/fg fedB|dBde ffed|
eAA/A/A BAeA|A/A/Ae z d2cA|GAA/A/A dAcA|A/A/Ae2 z Ace:|
|:gg/g/gf geef|gg/g/ga geeg|ff/f/fg fedB|dBde ffed|
[1 eaa eaa ea|a eaa eaa z |eaa eaa eg|gfed eaef:|
[2 eAA/A/A BAeA|A/A/Ae z d2cA|GAA/A/A dAcA|A/A/AeA e z3||
